frontend/assets/logo-white.svg

<?xml version="1.0" encoding="UTF-8"?>
<svg width="240px" height="240px" viewBox="0 0 240 240" version="1.1" xmlns="http://www.w3.org/2000/svg" xmlns:xlink="http://www.w3.org/1999/xlink">
    <title>Logo Med</title>
    <defs>
        <polygon id="path-1" points="0.0259358491 0.0379142827 6.45441509 0.0379142827 6.45441509 83.1696255 0.0259358491 83.1696255"></polygon>
        <polygon id="path-3" points="0.264426651 0.258419358 3.79586328 0.258419358 3.79586328 96.5270801 0.264426651 96.5270801"></polygon>
    </defs>
    <g id="Logo-Med" stroke="none" stroke-width="1" fill="none" fill-rule="evenodd">
        <path d="M6.61626927e-05,144 C-0.222914583,192 43.4431823,240 119.917881,240 C196.392022,240 240.000066,192.870317 240.000066,144 C212.746085,240 182.971285,139.510332 165.506409,149.600394 C148.041534,159.689906 142.635393,192 119.917881,192 C97.1992528,192 91.3247848,145.074968 73.2447757,149.600394 C55.1647665,154.125271 22.0474814,212.44364 6.61626927e-05,144" id="Fill-127" fill="#ffffff"></path>
        <g id="Group-63" transform="translate(4.000000, 0.000000)">
            <path d="M224.369512,148.283019 C223.357617,143.848521 221.818336,139.66297 220.012789,135.582581 C219.904739,135.338288 219.821558,135.072125 219.675777,134.857147 C218.039165,132.453305 217.892955,129.729323 217.900244,126.842014 C217.961987,103.27822 217.934974,79.7139602 217.934974,56.1497008 L217.934974,54.7169811 C219.140673,54.7542067 220.047091,55.3125905 220.624643,56.2841782 C222.681877,59.7475534 224.410245,63.2863104 224.4,67.6458915 C224.33864,94.0774514 224.369512,120.509477 224.369512,146.941502 L224.369512,148.283019 Z" id="Fill-1" fill="#ffffff"></path>
            <path d="M21.3202666,25.2187497 L21.3202666,26.3294181 C21.3202666,55.2948856 21.316119,84.2603531 21.3396226,113.225821 C21.3400829,114.11883 21.0575847,114.720539 20.4571031,115.350213 C18.7588876,117.132502 17.1403984,118.992161 15.397481,120.924528 C15.367526,120.512514 15.322824,120.18952 15.322824,119.866061 C15.3195981,92.7639808 15.3177547,65.6623669 15.3361886,38.5602868 C15.3366494,37.9240878 15.4587734,37.2347556 15.7186903,36.6600791 C17.3132155,33.1355829 18.9621205,29.636255 20.600426,26.1313342 C20.7552701,25.7990192 20.9603463,25.4900082 21.1419194,25.1698113 C21.2013684,25.1861241 21.2608175,25.2024369 21.3202666,25.2187497" id="Fill-3" fill="#ffffff"></path>
            <path d="M14.2259488,42.2017012 L14.2259488,43.359345 C14.2259488,69.4638872 14.2328005,95.5679653 14.1939744,121.672043 C14.1926041,122.489449 13.8463667,123.381587 13.4384644,124.109872 C11.5460352,127.489505 9.5745835,130.823649 7.69996863,134.056604 C7.69677119,133.998582 7.6620561,133.68341 7.6620561,133.368702 C7.65977221,109.932217 7.65885865,86.4966612 7.66571032,63.0606411 C7.66616709,62.602968 7.68169753,62.1211579 7.81507656,61.6904067 C9.77099783,55.3967051 11.7470173,49.1095018 13.7239503,42.8227627 C13.7993186,42.582786 13.934068,42.3618404 14.0409539,42.1320755 C14.1026189,42.155284 14.1642839,42.1784926 14.2259488,42.2017012" id="Fill-5" fill="#ffffff"></path>
            <path d="M23.5286701,112.169811 L23.5286701,110.645716 C23.5286701,81.1879605 23.5225505,51.7302047 23.5602092,22.272449 C23.5611506,21.4026701 23.8506513,20.4274917 24.3082036,19.6845653 C25.6846265,17.4515887 27.2107423,15.3095541 28.6784873,13.1320755 C28.7778119,13.1721832 28.8771366,13.2118246 28.9769319,13.251466 L28.9769319,14.3614252 C28.9769319,45.1016967 28.9717539,75.8419682 29,106.582706 C29.0009393,107.506117 28.6940215,108.058765 27.9808612,108.593691 C26.5244138,109.686861 25.1362227,110.869573 23.5286701,112.169811" id="Fill-7" fill="#ffffff"></path>
            <path d="M31.7565309,106.150943 L31.7565309,104.700777 C31.7565309,73.6285798 31.7608595,42.5559169 31.7358491,11.483254 C31.7353688,10.5112003 31.9888335,9.78774662 32.7227751,9.12993446 C33.9737464,8.00937263 35.1617121,6.82223816 36.576209,5.47169811 C36.6065094,6.13835559 36.6377716,6.50613451 36.6377716,6.87344788 C36.6401764,38.5666795 36.6363287,70.2599112 36.6603774,101.953143 C36.6608576,102.794379 36.4227835,103.280406 35.6599844,103.701722 C34.388813,104.403761 33.1950757,105.237548 31.7565309,106.150943" id="Fill-9" fill="#ffffff"></path>
            <path d="M216.679245,129.679245 C214.712699,127.091853 212.791393,124.589224 210.912499,122.05475 C210.707504,121.777981 210.684883,121.320914 210.684883,120.947205 C210.674516,100.08369 210.6797,79.2201738 210.660377,58.356658 C210.659907,57.6303149 210.874799,57.1952583 211.544452,56.916616 C213.191017,56.2319521 214.823444,55.5145068 216.679245,54.7169811 L216.679245,129.679245 Z" id="Fill-11" fill="#ffffff"></path>
            <path d="M44.2927211,1.09433962 L44.2927211,2.52690467 C44.2927211,34.1228968 44.2863287,65.7184236 44.3207547,97.3144157 C44.3222247,98.3282381 44.008503,98.8572496 43.0427514,99.2285347 C42.0632315,99.6054031 41.1486195,100.132554 40.0309243,100.679245 C40.0058462,100.164192 39.9689667,99.7608031 39.9689667,99.3574144 C39.9665081,67.6069528 39.9714253,35.856026 39.9433962,4.10556436 C39.9429052,3.15408807 40.2049956,2.57948013 41.1604209,2.26263154 C42.1537092,1.93275541 43.1214277,1.53494992 44.2927211,1.09433962" id="Fill-13" fill="#ffffff"></path>
            <g id="Group-17" transform="translate(225.433962, 69.490566)">
                <mask id="mask-2" fill="white">
                    <use xlink:href="#path-1"></use>
                </mask>
                <g id="Clip-16"></g>
                <path d="M0.0259358491,83.1180509 L0.0259358491,0.0843778644 C0.0991002695,0.0690448825 0.17226469,0.0537119005 0.246367116,0.0379142827 C0.736943935,1.92387107 1.27113801,3.80053513 1.71106253,5.69810781 C3.54627008,13.6173607 4.82383342,21.6244297 5.58783881,29.7155978 C6.36075526,37.8931882 6.70641024,46.0791421 6.25053962,54.2864691 C5.72994663,63.6688602 4.49131051,72.9155776 0.86826469,81.7013763 C0.664248518,82.1957488 0.438658221,82.6808286 0.222916981,83.1696255 C0.156787601,83.1524339 0.0915962264,83.1352424 0.0259358491,83.1180509" id="Fill-15" fill="#ffffff" mask="url(#mask-2)"></path>
            </g>
            <path d="M6.56494818,66.7815462 L6.56494818,68.1637158 C6.56494818,90.5152661 6.57318793,112.866354 6.54434881,135.217442 C6.54251775,136.505246 6.28067684,137.799527 6.06781666,139.079005 C5.71579628,141.195279 5.30518212,143.301838 4.89456797,145.54717 C4.70322269,145.183587 4.48944698,144.823705 4.31824331,144.443932 C2.37045821,140.121183 1.43112683,135.529216 0.850224534,130.855374 C-0.506129693,119.933089 -0.0790360401,109.015892 1.00861082,98.1023962 C2.02530428,87.8984879 3.75931367,77.8194745 6.10123342,67.8445401 C6.18683526,67.4800322 6.28296566,67.1178372 6.37406067,66.754717 C6.43768984,66.7635059 6.50131901,66.7722948 6.56494818,66.7815462" id="Fill-18" fill="#ffffff"></path>
            <path d="M78.245283,12.5849057 C79.8786104,13.7934321 81.3813106,14.839919 82.785553,15.9966114 C83.0940866,16.2501778 83.1540386,16.8950677 83.1545261,17.360173 C83.1725604,34.745116 83.1696359,52.130059 83.1696359,69.515469 L83.1696359,86.8112201 C81.5294847,87.056381 79.9200407,87.2968722 78.245283,87.5471698 L78.245283,12.5849057 Z" id="Fill-20" fill="#ffffff"></path>
            <path d="M93.5660377,25.7169811 C95.6157102,27.5082611 97.5085125,29.1366131 99.3539577,30.810455 C99.5650912,31.0016981 99.5764372,31.4487058 99.5769305,31.7768828 C99.5867965,49.448308 99.5853166,67.1201973 99.5838367,84.7920867 C99.5838367,85.016751 99.5626247,85.2409511 99.546839,85.5621654 C97.5420571,85.6772826 95.5964714,85.7891506 93.5660377,85.9056604 L93.5660377,25.7169811 Z" id="Fill-22" fill="#ffffff"></path>
            <path d="M91.3772523,85.9106089 C89.7097399,86.0944602 88.1140212,86.2703788 86.4528302,86.4528302 L86.4528302,18.6037736 C88.1171819,20.100715 89.6645865,21.4296705 91.1207814,22.8580176 C91.3935075,23.1258619 91.3673186,23.7908063 91.3677701,24.2728326 C91.3790585,42.730755 91.3772523,61.1882107 91.3772523,79.6456664 L91.3772523,85.9106089 Z" id="Fill-24" fill="#ffffff"></path>
            <g id="Group-28" transform="translate(47.603774, 0.000000)">
                <mask id="mask-4" fill="white">
                    <use xlink:href="#path-3"></use>
                </mask>
                <g id="Clip-27"></g>
                <path d="M0.264426651,96.5270801 L0.264426651,0.258186548 L3.71351156,0.258186548 C3.7326625,0.653963942 3.77000684,1.06231309 3.77000684,1.47019662 C3.77287948,32.304515 3.76809175,63.1388334 3.79586328,93.9731518 C3.79681816,94.8564338 3.53971675,95.3122763 2.68989363,95.5730237 C1.90422618,95.8142151 1.15590307,96.1708804 0.264426651,96.5270801" id="Fill-26" fill="#ffffff" mask="url(#mask-4)"></path>
            </g>
            <path d="M74.9616994,88.3459225 C73.666711,88.6305499 72.4518569,88.8980255 71.1320755,89.1886792 L71.1320755,8.20754717 C72.3929736,9.07394557 73.5755084,9.81842702 74.667726,10.6866797 C74.9227391,10.8892565 74.949303,11.5132117 74.9501884,11.9433977 C74.9661268,19.552777 74.9616994,27.1626197 74.9616994,34.7719989 L74.9616994,86.8027228 L74.9616994,88.3459225 Z" id="Fill-29" fill="#ffffff"></path>
            <path d="M207.591964,119.283019 C206.004871,117.567029 204.39223,115.873938 202.851668,114.11402 C202.573391,113.796245 202.486258,113.207424 202.485346,112.742911 C202.466186,100.051971 202.469835,87.3605628 202.469835,74.6696224 C202.469835,70.8544426 202.488539,67.0392628 202.452956,63.224083 C202.447026,62.5193683 202.649575,62.0702762 203.223921,61.6968895 C204.754903,60.702438 206.261251,59.6659278 207.924528,58.5471698 L207.924528,118.994684 C207.813217,119.090951 207.702819,119.187219 207.591964,119.283019" id="Fill-31" fill="#ffffff"></path>
            <path d="M107.146275,85.3584906 L101.226415,85.3584906 L101.226415,32.8301887 C103.251209,34.7679018 105.178013,36.5966505 107.076081,38.4541473 C107.232486,38.6066976 107.241908,38.9507471 107.241908,39.2053067 C107.247562,54.4204586 107.245206,69.6360742 107.241437,84.8512261 C107.241437,84.9606543 107.201865,85.0700824 107.146275,85.3584906" id="Fill-33" fill="#ffffff"></path>
            <path d="M64.0188679,3.83018868 C65.054575,4.36040754 65.9907293,4.80705424 66.8880445,5.32473728 C67.0862574,5.43895255 67.1960781,5.79366989 67.2617026,6.06017219 C67.3242022,6.31460295 67.2764347,6.59828397 67.2764347,6.86896488 C67.2764347,34.0995568 67.2692919,61.3306129 67.3018868,88.5616691 C67.3032202,89.6439285 67.076436,90.2033976 65.9965328,90.3264343 C65.3460909,90.4007207 64.7139524,90.6472585 64.0188679,90.8301887 L64.0188679,3.83018868 Z" id="Fill-35" fill="#ffffff"></path>
            <path d="M108.339623,39.3962264 C110.733798,41.6765437 112.980706,43.7946529 115.188732,45.9508458 C115.401612,46.1591304 115.443411,46.5996783 115.443897,46.9325576 C115.455561,59.5006324 115.453617,72.0687071 115.450215,84.6367819 C115.449729,84.8605821 115.407931,85.0843823 115.380227,85.3584906 L108.339623,85.3584906 L108.339623,39.3962264 Z" id="Fill-37" fill="#ffffff"></path>
            <path d="M56.3584906,1.09433962 C57.1571662,1.31703025 57.8947908,1.48089693 58.5964226,1.74467094 C58.806001,1.82310286 58.9923434,2.16204079 59.0529389,2.41554395 C59.131303,2.74607847 59.0743523,3.11069351 59.0743523,3.460836 C59.0748079,32.4316257 59.0748079,61.4019485 59.0748079,90.3722714 C59.0748079,92.99834 59.0748079,92.99834 56.3584906,93.5660377 L56.3584906,1.09433962 Z" id="Fill-39" fill="#ffffff"></path>
            <path d="M123.053869,85.3584906 L116.54717,85.3584906 L116.54717,47.3037884 C116.650881,47.2212372 116.755059,47.139155 116.85877,47.0566038 C118.867587,49.1541551 120.884814,51.2442017 122.871207,53.3628598 C123.052935,53.5561047 123.104323,53.9341517 123.10479,54.2268333 C123.116002,64.4575553 123.114134,74.6882772 123.109929,84.9189992 C123.109929,85.1052084 123.063212,85.2909487 123.053869,85.3584906" id="Fill-41" fill="#ffffff"></path>
            <path d="M200.264151,64.0188679 L200.264151,111.075472 C199.277854,110.360817 198.473127,109.592253 197.5041,109.113974 C195.260139,108.006743 194.767731,106.366862 194.793388,104.068081 C194.927591,92.2516322 194.865917,80.4342623 194.83434,68.6168924 C194.831873,67.7511055 195.07561,67.2166122 195.886751,66.7595283 C197.320063,65.9513376 198.675419,65.0233467 200.264151,64.0188679" id="Fill-43" fill="#ffffff"></path>
            <path d="M124.754717,55.2641509 C126.795283,57.1327673 128.664141,58.8267077 130.501219,60.5535446 C130.692374,60.7328539 130.767318,61.1067626 130.767318,61.3907848 C130.778227,69.4105917 130.77301,77.4308619 130.765895,85.4502054 C130.765421,85.5581617 130.711821,85.6651913 130.647313,85.9056604 C128.708253,85.7518343 126.765874,85.5980082 124.754717,85.4381588 L124.754717,55.2641509 Z" id="Fill-45" fill="#ffffff"></path>
            <path d="M192.056604,69.490566 L192.056604,105.603774 C190.417921,104.670897 188.853568,103.805384 187.331055,102.878082 C187.146956,102.766118 187.139572,102.318727 187.13908,102.026971 C187.129727,92.3581294 187.127266,82.6888231 187.147448,73.0199813 C187.148432,72.6859482 187.285769,72.1981391 187.53829,72.044363 C188.972199,71.1723461 190.460747,70.380237 192.056604,69.490566" id="Fill-47" fill="#ffffff"></path>
            <path d="M137.825447,87 C135.875055,86.7680438 134.166573,86.5649656 132.415094,86.356764 L132.415094,62.9245283 C133.561327,63.90452 134.463762,64.8724016 135.549045,65.5598863 C137.449826,66.7643818 137.954433,68.3475529 137.879782,70.5297113 C137.708272,75.5209619 137.825447,80.5219938 137.825447,85.518368 L137.825447,87 Z" id="Fill-49" fill="#ffffff"></path>
            <path d="M184.396226,101.226415 C183.20664,100.607095 182.128993,100.094329 181.106872,99.4801266 C180.837239,99.3177353 180.589815,98.8398674 180.588038,98.5057787 C180.558721,91.3377601 180.560053,84.1702069 180.584041,77.001723 C180.585373,76.688573 180.777715,76.2214071 181.014922,76.0897259 C182.081019,75.4959971 183.195534,74.9976558 184.396226,74.4150943 L184.396226,101.226415 Z" id="Fill-51" fill="#ffffff"></path>
            <path d="M145.374448,88.0943396 C143.821433,87.8670124 142.269394,87.6396852 140.622642,87.3985247 L140.622642,70.0377358 C142.201044,71.1310275 143.756012,72.190197 145.279246,73.2880998 C145.459398,73.4176716 145.541906,73.7611985 145.542395,74.0060479 C145.552647,78.5719584 145.544836,83.137869 145.533607,87.7037795 C145.533119,87.806607 145.452563,87.9089734 145.374448,88.0943396" id="Fill-53" fill="#ffffff"></path>
            <path d="M176.188679,96.8490566 C175.118735,96.4080223 174.149704,96.041941 173.217614,95.5954223 C173.038314,95.5090436 172.919381,95.1063998 172.91848,94.8486347 C172.901361,89.6805353 172.899559,84.512436 172.924337,79.3443366 C172.925688,79.0806301 173.138776,78.6629043 173.351413,78.5820099 C174.247013,78.2415223 175.180454,78.0020384 176.188679,77.6981132 L176.188679,96.8490566 Z" id="Fill-55" fill="#ffffff"></path>
            <path d="M153.206594,89.7358491 C151.624109,89.4195605 150.251217,89.1450371 148.830189,88.8615975 L148.830189,75.509434 C150.204585,76.1316871 151.514297,76.7046668 152.796432,77.3283278 C152.998003,77.4264054 153.188543,77.7516101 153.189546,77.9731059 C153.213614,81.8380206 153.206594,85.7034046 153.206594,89.7358491" id="Fill-57" fill="#ffffff"></path>
            <path d="M160.867925,79.3938593 L160.867925,91.9245283 C159.747518,91.6250307 158.699367,91.3453068 157.584906,91.0477384 L157.584906,78.7924528 C158.667355,78.990671 159.727397,79.1845487 160.867925,79.3938593" id="Fill-59" fill="#ffffff"></path>
            <path d="M167.981132,94.1059455 C167.809037,94.1059455 167.728106,94.1240503 167.658337,94.1030869 C165.245283,93.3836616 165.245283,93.3831852 165.245283,90.8132647 L165.245283,79.637398 C166.157388,79.5378219 167.021585,79.4439631 167.981132,79.3396226 L167.981132,94.1059455 Z" id="Fill-61" fill="#ffffff"></path>
        </g>
    </g>
</svg>

<svg xmlns="http://www.w3.org/2000/svg" xmlns:xlink="http://www.w3.org/1999/xlink" width="240" height="240" xmlns:v="https://vecta.io/nano"><defs><path id="A" d="M.026.038h6.428V83.17H.026z"/><path id="B" d="M.264.258h3.531v96.269H.264z"/></defs><g fill="none" fill-rule="evenodd"><path d="M0 144c-.223 48 43.443 96 119.918 96S240 192.87 240 144c-27.254 96-57.029-4.49-74.494 5.6S142.635 192 119.918 192s-28.593-46.925-46.673-42.4S22.047 212.444 0 144" fill="#fff"/><g transform="translate(4)"><g fill="#fff"><path d="M224.37 148.283c-1.012-4.434-2.551-8.62-4.357-12.7-.108-.244-.191-.51-.337-.725-1.637-2.404-1.783-5.128-1.776-8.015l.035-70.692v-1.433a3.08 3.08 0 0 1 2.69 1.567c2.057 3.463 3.786 7.002 3.775 11.362l-.03 79.296v1.342zM21.32 25.219v1.111l.019 86.896c0 .893-.282 1.495-.883 2.124l-5.06 5.574-.075-1.058.013-81.306c0-.636.123-1.326.383-1.9L20.6 26.131c.155-.332.36-.641.541-.962l.178.049m-7.093 16.984v1.158l-.032 78.313c-.001.817-.348 1.71-.756 2.438L7.7 134.057l-.038-.688.004-70.308c0-.458.016-.939.149-1.37l5.909-18.868c.075-.24.21-.461.317-.691l.185.07m9.303 69.968v-1.524l.032-88.373a5.19 5.19 0 0 1 .748-2.588l4.37-6.552.298.119v1.11L29 106.583c.001.923-.306 1.476-1.019 2.011l-4.452 3.576m8.228-6.019v-1.45l-.021-93.218c0-.972.253-1.696.987-2.353l3.853-3.658.062 1.402.023 95.08c0 .841-.238 1.327-1 1.749-1.271.702-2.465 1.536-3.903 2.449m184.921 23.527l-5.767-7.624c-.205-.277-.228-.734-.228-1.108l-.025-62.591c0-.726.214-1.161.884-1.44l5.135-2.2v74.962z"/><path d="M44.293 1.094v1.433l.028 94.788c.001 1.014-.312 1.543-1.278 1.914-.98.377-1.894.904-3.012 1.451l-.062-1.322-.026-95.252c0-.951.262-1.526 1.217-1.843l3.132-1.168"/></g><g transform="translate(225.434 69.491)"><mask id="C" fill="#fff"><use xlink:href="#A"/></mask><path d="M.026 83.118V.084l.22-.046 1.465 5.66c1.835 7.919 3.113 15.926 3.877 24.017.773 8.178 1.119 16.364.663 24.571C5.73 63.669 4.491 72.916.868 81.701c-.204.494-.43.979-.645 1.468l-.197-.052" fill="#fff" mask="url(#C)"/></g><path d="M6.565 66.782v1.382l-.021 67.054c-.002 1.288-.264 2.582-.477 3.862l-1.173 6.468-.576-1.103C2.37 140.122 1.431 135.53.85 130.856c-1.356-10.922-.929-21.839.158-32.753C2.025 87.899 3.759 77.82 6.101 67.845l.273-1.09.191.027m71.68-54.197l4.54 3.412c.309.254.368.898.369 1.364l.015 52.155v17.296l-4.924.736V12.585zm15.321 13.132l5.788 5.093c.211.191.222.638.223.966l.007 53.015-.037.77-5.981.343V25.717zm-2.189 60.194l-4.924.542V18.604l4.668 4.254c.273.268.247.933.247 1.415l.009 55.373v6.265z" fill="#fff"/><g transform="translate(47.604)"><mask id="D" fill="#fff"><use xlink:href="#B"/></mask><path d="M.264 96.527V.258h3.449L3.77 1.47l.026 92.503c.001.883-.256 1.339-1.106 1.6-.786.241-1.534.598-2.425.954" fill="#fff" mask="url(#D)"/></g><g fill="#fff"><path d="M74.962 88.346l-3.83.843V8.208l3.536 2.479c.255.203.282.827.282 1.257l.012 22.829v52.031 1.543zm132.63 30.937l-4.74-5.169c-.278-.318-.365-.907-.366-1.371l-.016-38.073-.017-11.446c-.006-.705.197-1.154.771-1.527l4.701-3.15v60.448l-.333.288"/><path d="M107.146 85.358h-5.92V32.83l5.85 5.624c.156.153.166.497.166.751v45.646c0 .109-.04.219-.095.507M64.019 3.83l2.869 1.495c.198.114.308.469.374.735.062.254.015.538.015.809l.025 81.693c.001 1.082-.225 1.642-1.305 1.765-.65.074-1.283.321-1.978.504v-87zm44.321 35.566l6.849 6.555c.213.208.255.649.255.982l.006 37.704c0 .224-.042.448-.07.722h-7.041V39.396zM56.358 1.094l2.238.65c.21.078.396.417.457.671.078.331.021.695.021 1.045v86.911c0 2.626 0 2.626-2.716 3.194V1.094zm66.696 84.264h-6.507V47.304l.312-.247 6.012 6.306c.182.193.233.571.234.864l.005 30.692c0 .186-.047.372-.056.439m77.21-21.339v47.057c-.986-.715-1.791-1.483-2.76-1.961-2.244-1.107-2.736-2.747-2.711-5.046l.041-35.451c-.002-.866.241-1.4 1.052-1.857l4.377-2.741"/><path d="M124.755 55.264l5.747 5.289c.191.179.266.553.266.837l-.001 24.059c0 .108-.054.215-.119.455l-5.893-.468V55.264zm67.302 14.227v36.113l-4.726-2.726c-.184-.112-.191-.559-.192-.851l.008-29.007c.001-.334.138-.822.391-.976l4.518-2.554M137.825 87l-5.41-.643V62.925c1.146.98 2.049 1.948 3.134 2.635 1.901 1.204 2.405 2.788 2.331 4.97-.172 4.991-.054 9.992-.054 14.989V87zm46.571 14.226l-3.289-1.746c-.27-.162-.517-.64-.519-.974l-.004-21.504c.001-.313.194-.78.431-.912l3.381-1.675v26.811z"/><path d="M145.374 88.094l-4.752-.696v-17.36l4.657 3.25c.18.13.263.473.263.718l-.009 13.698c0 .103-.081.205-.159.391m30.815 8.754l-2.971-1.254c-.179-.086-.298-.489-.299-.747l.006-15.504c.001-.264.214-.681.427-.762.896-.34 1.829-.58 2.837-.884v19.151z"/><path d="M153.207 89.736l-4.376-.874V75.509l3.966 1.819c.202.098.392.423.393.645l.017 11.763m7.661-10.342v12.531l-3.283-.877V78.792l3.283.601m7.113 14.713c-.172 0-.253.018-.323-.003-2.413-.719-2.413-.72-2.413-3.29V79.637l2.736-.298v14.766z"/></g></g></g></svg>
